src/lib/packages/icons/src/assets/line/home-dash-wifi.svg

<svg width="24" height="24" viewBox="0 0 24 24" fill="none" xmlns="http://www.w3.org/2000/svg">
<path d="M20.747 8.48299L14.065 2.98994C12.868 2.00694 11.131 2.00594 9.93401 2.98994L3.25201 8.48299C2.48201 9.11599 2.11502 10.1189 2.29302 11.0999L3.7481 19.083C4.0301 20.628 5.3751 21.75 6.9461 21.75H17.0511C18.6221 21.75 19.9671 20.628 20.2491 19.083L21.704 11.0999C21.884 10.1189 21.517 9.11599 20.747 8.48299ZM20.2291 10.831L18.7741 18.8139C18.6231 19.6459 17.8981 20.25 17.0521 20.25H6.94707C6.10107 20.25 5.37703 19.6459 5.22503 18.8139L3.77007 10.832C3.68807 10.386 3.85511 9.92992 4.20611 9.64192L10.888 4.149C11.21 3.884 11.6051 3.75191 12.0001 3.75191C12.3951 3.75191 12.7901 3.88498 13.1121 4.14998L19.794 9.6429C20.144 9.9299 20.3111 10.385 20.2291 10.831ZM13.0001 16.5119C13.0001 17.0639 12.5521 17.5119 12.0001 17.5119C11.4481 17.5119 11.0001 17.0639 11.0001 16.5119C11.0001 15.9599 11.4481 15.5119 12.0001 15.5119C12.5521 15.5119 13.0001 15.9599 13.0001 16.5119ZM14.704 13.6639C15.034 13.9149 15.0981 14.3859 14.8471 14.7149C14.7001 14.9089 14.4761 15.0109 14.2491 15.0109C14.0911 15.0109 13.9321 14.961 13.7961 14.858C12.7671 14.075 11.234 14.075 10.204 14.858C9.87403 15.108 9.40401 15.0449 9.15301 14.7149C8.90201 14.3849 8.96507 13.9149 9.29607 13.6639C10.8511 12.4809 13.149 12.4809 14.704 13.6639ZM16.9891 11.598C17.3021 11.868 17.339 12.342 17.068 12.656C16.92 12.828 16.7111 12.9169 16.5001 12.9169C16.3261 12.9169 16.152 12.8569 16.011 12.7349C14.899 11.7769 13.4741 11.25 12.0001 11.25C10.5261 11.25 9.10207 11.7769 7.98907 12.7349C7.67607 13.0049 7.20208 12.97 6.93108 12.656C6.66008 12.342 6.69706 11.868 7.01006 11.598C8.39506 10.406 10.1661 9.74995 11.9991 9.74995C13.8321 9.74995 15.6041 10.406 16.9891 11.598Z" fill="currentColor"/>
</svg>

<svg xmlns="http://www.w3.org/2000/svg" width="24" height="24" fill="none"><path fill="currentColor" d="M20.747 8.483 14.065 2.99a3.26 3.26 0 0 0-4.131 0L3.252 8.483a2.753 2.753 0 0 0-.959 2.617l1.455 7.983a3.25 3.25 0 0 0 3.198 2.667h10.105a3.25 3.25 0 0 0 3.198-2.667l1.455-7.983a2.748 2.748 0 0 0-.957-2.617Zm-.518 2.348-1.455 7.983a1.75 1.75 0 0 1-1.722 1.436H6.947a1.75 1.75 0 0 1-1.722-1.436L3.77 10.832a1.248 1.248 0 0 1 .436-1.19l6.682-5.493A1.747 1.747 0 0 1 12 3.752c.395 0 .79.133 1.112.398l6.682 5.493c.35.287.517.742.435 1.188ZM13 16.511a1 1 0 1 1-2 0 1 1 0 0 1 2 0Zm1.704-2.847a.75.75 0 1 1-.908 1.194c-1.029-.783-2.562-.783-3.592 0a.75.75 0 0 1-.908-1.194c1.555-1.183 3.853-1.183 5.408 0Zm2.285-2.066a.75.75 0 0 1-.978 1.137 6.146 6.146 0 0 0-4.01-1.485 6.148 6.148 0 0 0-4.012 1.485.75.75 0 0 1-.979-1.137A7.648 7.648 0 0 1 12 9.75a7.65 7.65 0 0 1 4.99 1.848Z"/></svg>
